src/actions/16/format-text-color.svg

<svg viewBox="0 0 16 16" xmlns="http://www.w3.org/2000/svg">
 <defs>
  <style type="text/css">.ColorScheme-Text {
        color:#2e3440;
      }</style>
 </defs>
 <path class="ColorScheme-Text" d="m2 3v1h4v9h1v-9h4v-1h-9zm10 4c-0.38917 1.2769-1.3613 2.3712-1.7812 3.25-0.14695 0.2613-0.21875 0.55798-0.21875 0.875 0 1.0388 0.892 1.875 2 1.875s2-0.83625 2-1.875c0-0.31702-0.10302-0.6137-0.25-0.875-0.41994-0.87885-1.3608-1.9731-1.75-3.25z" fill="currentColor"/>
</svg>

<svg xmlns="http://www.w3.org/2000/svg" viewBox="0 0 16 16">
  <defs id="defs3051">
    <style type="text/css" id="current-color-scheme">
      .ColorScheme-Text {
        color:#2e3440;
      }
      </style>
  </defs>
 <path style="fill:currentColor;fill-opacity:1;stroke:none" 
       d="M 2 3 L 2 4 L 6 4 L 6 13 L 7 13 L 7 4 L 11 4 L 11 3 L 2 3 z M 12 7 C 11.61083 8.27687 10.63869 9.37115 10.21875 10.25 C 10.0718 10.5113 10 10.80798 10 11.125 C 10 12.16375 10.892 13 12 13 C 13.108 13 14 12.16375 14 11.125 C 14 10.80798 13.89698 10.5113 13.75 10.25 C 13.33006 9.37115 12.38916 8.27687 12 7 z "
     class="ColorScheme-Text"
     />
</svg>
